img/icon13.svg

<svg width="81" height="63" viewBox="0 0 81 63" fill="none" xmlns="http://www.w3.org/2000/svg">
<rect width="81" height="63" fill="white"/>
<rect x="1" y="1" width="79" height="61" stroke="black" stroke-width="2"/>
<path d="M57.6866 17.8101V9.69026H48.309V3.21973H46.5053V9.69026H37.1277V17.8101H34.5626V42.6332H19.8784V44.437H23.999V58.9998H60.2517V17.8101H57.6866ZM38.8984 11.4941H55.8828V17.8101H38.8984V11.4941ZM53.5936 57.2181H25.8028V44.448H53.5936V57.2181ZM58.4479 57.2181H55.3974V42.6552H36.3333V19.6139H58.4534L58.4479 57.2181Z" fill="#000105"/>
<path d="M56.7819 22.3227H37.9936V24.1265H56.7819V22.3227Z" fill="#000105"/>
<path d="M56.7819 27.072H37.9936V28.8758H56.7819V27.072Z" fill="#000105"/>
<path d="M56.7819 31.8214H37.9936V33.6252H56.7819V31.8214Z" fill="#000105"/>
<path d="M56.7819 36.5651H37.9936V38.3689H56.7819V36.5651Z" fill="#000105"/>
</svg>

<svg width="81" height="63" fill="none" xmlns="http://www.w3.org/2000/svg"><path fill="#fff" d="M0 0h81v63H0z"/><path stroke="#000" stroke-width="2" d="M1 1h79v61H1z"/><path d="M57.687 17.81V9.69h-9.378V3.22h-1.804v6.47h-9.377v8.12h-2.565v24.823H19.878v1.804H24V59h36.253V17.81h-2.565zm-18.789-6.316h16.985v6.316H38.898v-6.316zm14.696 45.724H25.803v-12.77h27.79v12.77zm4.854 0h-3.05V42.655H36.332V19.614h22.12l-.005 37.604z" fill="#000105"/><path d="M56.782 22.323H37.994v1.803h18.788v-1.803zm0 4.749H37.994v1.804h18.788v-1.804zm0 4.749H37.994v1.804h18.788v-1.804zm0 4.744H37.994v1.804h18.788v-1.804z" fill="#000105"/></svg>
